SVG_Azure_All/Custom IP Prefix.svg

<?xml version="1.0" encoding="UTF-8" standalone="no"?>
<!-- Generated by Microsoft Visio, SVG Export Custom IP Prefix.svg Page-1 -->

<svg
   xmlns:dc="http://purl.org/dc/elements/1.1/"
   xmlns:cc="http://creativecommons.org/ns#"
   xmlns:rdf="http://www.w3.org/1999/02/22-rdf-syntax-ns#"
   xmlns:svg="http://www.w3.org/2000/svg"
   xmlns="http://www.w3.org/2000/svg"
   xmlns:sodipodi="http://sodipodi.sourceforge.net/DTD/sodipodi-0.dtd"
   xmlns:inkscape="http://www.inkscape.org/namespaces/inkscape"
   width="0.78733039in"
   height="0.78741378in"
   viewBox="0 0 56.687696 56.694102"
   xml:space="preserve"
   class="st6"
   version="1.1"
   id="svg45"
   sodipodi:docname="Custom IP Prefix.svg"
   style="font-size:12px;overflow:visible;color-interpolation-filters:sRGB;fill:none;fill-rule:evenodd;stroke-linecap:square;stroke-miterlimit:3"
   inkscape:version="0.92.5 (2060ec1f9f, 2020-04-08)"><metadata
   id="metadata49"><rdf:RDF><cc:Work
       rdf:about=""><dc:format>image/svg+xml</dc:format><dc:type
         rdf:resource="http://purl.org/dc/dcmitype/StillImage" /></cc:Work></rdf:RDF></metadata><sodipodi:namedview
   pagecolor="#ffffff"
   bordercolor="#666666"
   borderopacity="1"
   objecttolerance="10"
   gridtolerance="10"
   guidetolerance="10"
   inkscape:pageopacity="0"
   inkscape:pageshadow="2"
   inkscape:window-width="640"
   inkscape:window-height="480"
   id="namedview47"
   showgrid="false"
   inkscape:zoom="1.4193119"
   inkscape:cx="37.795128"
   inkscape:cy="37.786193"
   inkscape:window-x="0"
   inkscape:window-y="0"
   inkscape:window-maximized="0"
   inkscape:current-layer="svg45" />
	<style
   type="text/css"
   id="style2">
	<![CDATA[
		.st1 {fill:#005ba1;stroke:none;stroke-linecap:butt;stroke-width:34}
		.st2 {fill:url(#grad0-8);stroke:none;stroke-linecap:butt;stroke-width:34}
		.st3 {fill:#0078d4;stroke:none;stroke-linecap:butt;stroke-width:34}
		.st4 {fill:#ffffff;stroke:none;stroke-linecap:butt;stroke-width:34}
		.st5 {fill:#50e6ff;stroke:none;stroke-linecap:butt;stroke-width:34}
		.st6 {fill:none;fill-rule:evenodd;font-size:12px;overflow:visible;stroke-linecap:square;stroke-miterlimit:3}
	]]>
	</style>

	<defs
   id="Patterns_And_Gradients">
		<linearGradient
   id="grad0-8"
   x1="0"
   y1="128.94767"
   x2="33.323409"
   y2="128.94767"
   gradientTransform="scale(1.3011874,0.76852881)"
   gradientUnits="userSpaceOnUse">
			<stop
   offset="0.195"
   stop-color="#5ea0ef"
   stop-opacity="1"
   id="stop4" />
			<stop
   offset="1"
   stop-color="#0078d4"
   stop-opacity="1"
   id="stop6" />
		</linearGradient>
	</defs>
	<g
   id="g43"
   transform="translate(-34.000441,-34.000199)">
		<title
   id="title10">Page-1</title>
		<g
   id="group5984-1"
   transform="translate(34,-34.0157)">
			<title
   id="title12">Custom IP Prefix</title>
			<g
   id="group5985-2">
				<title
   id="title14">Sheet.5985</title>
				<g
   id="shape5986-3"
   transform="translate(0,-21.2441)">
					<title
   id="title16">Sheet.5986</title>
					<path
   d="m 44.13,90.74 v 27.02 h -0.24 l -1.87,0.02 H 41.9 a 0.907894,0.907087 -180 0 0 -0.129249,0 A 14.8163,14.8031 -180 0 0 31.16,123.91 c -0.08,0.12 -0.16,0.23 -0.24,0.35 a 0.658853,0.658268 -180 0 0 -0.08512,0.12284 0.750273,0.749606 -180 0 0 -0.0725,0.12913 l -0.03238,0.068 -0.04,0.13 h -2.14 a 1.80633,1.80472 -180 0 0 -0.24,-1.14 3.3321,3.32913 -180 0 0 -0.58,-0.74 l -5.16,-5.62 a 2.12788,2.12598 -180 0 0 -0.69,-0.57 2.0995,2.09764 -180 0 0 -0.94,-0.23 2.06483,2.06299 -180 0 0 -1.62,0.78 l -5.55,5.73 a 2.10896,2.10709 -180 0 0 -0.73,1.79 H 1.48 A 1.48478,1.48346 0 0 1 0,123.23 V 90.71 a 1.47848,1.47717 0 0 1 1.48,-1.45 h 41.17 a 1.48478,1.48346 0 0 1 1.48,1.48 z"
   class="st1"
   id="path18"
   inkscape:connector-curvature="0"
   style="fill:#005ba1;stroke:none;stroke-width:34;stroke-linecap:butt" />
				</g>
				<g
   id="shape5987-5"
   transform="translate(4.902,-16.822)">
					<title
   id="title21">Sheet.5987</title>
					<path
   d="m 43.36,99.1 v 15.08 A 14.8163,14.8031 -180 0 0 23.88,124.71 H 1.45 A 1.45326,1.45197 0 0 1 0,123.26 V 99.1 Z"
   class="st2"
   id="path23"
   inkscape:connector-curvature="0"
   style="fill:url(#grad0-8);stroke:none;stroke-width:34;stroke-linecap:butt" />
				</g>
				<g
   id="shape5988-9"
   transform="translate(4.90515,-42.4283)">
					<title
   id="title26">Sheet.5988</title>
					<path
   d="M 1.45,115.48 H 41.9 a 1.45326,1.45197 0 0 1 1.46,1.46 v 7.77 H 0 v -7.8 a 1.45011,1.44882 0 0 1 1.45,-1.43 z"
   class="st3"
   id="path28"
   inkscape:connector-curvature="0"
   style="fill:#0078d4;stroke:none;stroke-width:34;stroke-linecap:butt" />
				</g>
				<g
   id="shape5989-11"
   transform="translate(12.3511,-30.1915)">
					<title
   id="title31">Sheet.5989</title>
					<path
   d="m 25.1,118.97 a 3.36677,3.36378 0 1 1 -3.37,3.36 3.36677,3.36378 0 0 1 3.37,-3.36 z m -14.09,3.36 a 3.36677,3.36378 -180 1 0 3.37,-3.36 3.36362,3.36063 -180 0 0 -3.37,3.36 z M 0,122.33 A 3.36677,3.36378 -180 1 0 3.36,118.97 3.36362,3.36063 -180 0 0 0,122.33 Z"
   class="st4"
   id="path33"
   inkscape:connector-curvature="0"
   style="fill:#ffffff;stroke:none;stroke-width:34;stroke-linecap:butt" />
				</g>
				<g
   id="shape5990-13"
   transform="translate(14.0881)">
					<title
   id="title36">Sheet.5990</title>
					<path
   d="m 36.2,117.78 h 4.75 a 13.3725,13.3606 -180 0 0 1.65,-6.01 h -5.21 a 16.6037,16.589 0 0 1 -1.19,6.01 z m 1.19,-6.96 h 5.21 a 13.3284,13.3165 -180 0 0 -1.64,-6.02 h -4.84 a 15.5035,15.4898 0 0 1 1.27,6.01 z m -7.07,13.89 a 13.5081,13.4961 -180 0 0 10.06,-5.99 h -4.65 a 16.112,16.0976 0 0 1 -5.41,5.99 z m 5.32,-20.87 h 4.73 A 13.4923,13.4803 -180 0 0 30.02,97.85 h -0.21 l 0.21,0.11 a 16.8433,16.8283 0 0 1 5.62,5.88 z m -6.33,0 h 5.29 a 15.1221,15.1087 -180 0 0 -0.71,-1.04 16.2664,16.252 -180 0 0 -3.87,-3.71 c -0.23,-0.16 -0.46,-0.32 -0.7,-0.46 z m 0,6.97 h 7.13 a 14.3403,14.3276 -180 0 0 -1.37,-6.02 h -5.76 z m 0,6.96 h 5.82 a 15.3901,15.3764 -180 0 0 1.31,-6.01 h -7.13 z m 5.36,0.94 h -5.36 v 5.52 a 15.7116,15.6976 -180 0 0 5.36,-5.51 z m -6.3,0 H 23.4 a 15.5193,15.5055 -180 0 0 4.97,5.27 z m 0,-20.09 a 14.9802,14.9669 -180 0 0 -4.82,4.82 l -0.23,0.39 h 5.04 z m 0,13.12 h -6.75 a 15.2797,15.2661 -180 0 0 1.31,6.02 h 5.44 z m 0,-6.96 h -5.5 a 15.6769,15.663 -180 0 0 -0.83,2.52 15.4184,15.4047 -180 0 0 -0.42,3.51 h 6.74 z m -0.66,19.93 a 16.2002,16.1858 0 0 1 -5.38,-5.99 h -4.45 c 0.05,0.07 0.09,0.14 0.14,0.2 a 12.6727,12.6614 -180 0 0 1.12,1.43 13.5175,13.5055 -180 0 0 8.57,4.36 z m 0.1,-26.86 a 13.527,13.515 -180 0 0 -9.68,5.6 c -0.1,0.13 -0.18,0.26 -0.27,0.38 h 4.42 l 0.21,-0.38 a 15.7085,15.6945 0 0 1 5.32,-5.6 z M 15.62,110.8 h 5.05 a 16.1876,16.1732 0 0 1 0.39,-3.51 16.9095,16.8945 0 0 1 0.77,-2.5 h -4.54 a 13.2748,13.263 -180 0 0 -1.06,2.52 13.631,13.6189 -180 0 0 -0.6,3.5 z m 1.67,6.98 h 4.57 c -0.06,-0.14 -0.11,-0.28 -0.16,-0.42 a 16.3137,16.2992 0 0 1 -0.99,-4.54 14.5452,14.5323 0 0 1 -0.05,-1.05 h -5.04 c 0,0.22 0.02,0.44 0.04,0.66 a 12.4426,12.4315 -180 0 0 0.21,1.44 13.3032,13.2913 -180 0 0 1.42,3.91 z m -1.07,0.79 A 13.2117,13.2 0 0 1 4.39,104.45 0.630482,0.629921 -180 0 0 4.345866,104.17598 0.652549,0.651969 -180 0 0 3.983339,103.78543 0.731359,0.730709 -180 0 0 3.712232,103.72873 L 1.19,103.73 c -0.97,0 -1.19,-0.53 -0.57,-1.16 l 5.6,-5.76 a 0.712444,0.711811 0 0 1 0.264802,-0.23622 0.734511,0.733858 0 0 1 0.668311,0 0.699835,0.699213 0 0 1 0.26165,0.23622 L 12.6,102.44 a 2.43996,2.4378 0 0 1 0.38,0.48 c 0.17,0.3 0.1,0.48 -0.19,0.59 a 2.32648,2.32441 0 0 1 -0.76,0.1 H 9.71 A 0.721902,0.72126 -180 0 0 8.984946,104.33441 8.64706,8.63937 -180 0 0 14.45,113.34 a 14.5578,14.5449 -180 0 0 1.77,5.22 z"
   class="st5"
   id="path38"
   inkscape:connector-curvature="0"
   style="fill:#50e6ff;stroke:none;stroke-width:34;stroke-linecap:butt" />
				</g>
			</g>
		</g>
	</g>
</svg>

<?xml version="1.0" encoding="UTF-8" standalone="no"?>
<!DOCTYPE svg PUBLIC "-//W3C//DTD SVG 1.1//EN" "http://www.w3.org/Graphics/SVG/1.1/DTD/svg11.dtd">
<!-- Generated by Microsoft Visio, SVG Export Custom IP Prefix.svg Page-1 -->
<svg xmlns="http://www.w3.org/2000/svg" xmlns:xlink="http://www.w3.org/1999/xlink" xmlns:ev="http://www.w3.org/2001/xml-events"
		width="1.73185in" height="1.73206in" viewBox="0 0 124.693 124.709" xml:space="preserve" color-interpolation-filters="sRGB"
		class="st6">
	<style type="text/css">
	<![CDATA[
		.st1 {fill:#005ba1;stroke:none;stroke-linecap:butt;stroke-width:34}
		.st2 {fill:url(#grad0-8);stroke:none;stroke-linecap:butt;stroke-width:34}
		.st3 {fill:#0078d4;stroke:none;stroke-linecap:butt;stroke-width:34}
		.st4 {fill:#ffffff;stroke:none;stroke-linecap:butt;stroke-width:34}
		.st5 {fill:#50e6ff;stroke:none;stroke-linecap:butt;stroke-width:34}
		.st6 {fill:none;fill-rule:evenodd;font-size:12px;overflow:visible;stroke-linecap:square;stroke-miterlimit:3}
	]]>
	</style>

	<defs id="Patterns_And_Gradients">
		<linearGradient id="grad0-8" x1="0" y1="0" x2="1" y2="0" gradientTransform="rotate(90 0.5 0.5)">
			<stop offset="0.195" stop-color="#5ea0ef" stop-opacity="1"/>
			<stop offset="1" stop-color="#0078d4" stop-opacity="1"/>
		</linearGradient>
	</defs>
	<g>
		<title>Page-1</title>
		<g id="group5865-1" transform="translate(34,-34.0157)">
			<title>Custom IP Prefix</title>
			<g id="group5866-2">
				<title>Sheet.5866</title>
				<g id="shape5867-3" transform="translate(-2.71783E-13,-21.2441)">
					<title>Sheet.5867</title>
					<path d="M44.13 90.74 L44.13 117.76 L43.89 117.76 L42.02 117.78 L41.9 117.78 a0.907894 0.907087 -180 0 0 -0.129249
								 -3.12639E-13 A14.8163 14.8031 -180 0 0 31.16 123.91 C31.08 124.03 31 124.14 30.92 124.26 a0.658853
								 0.658268 -180 0 0 -0.085115 0.122835 a0.750273 0.749606 -180 0 0 -0.0725054 0.129134 L30.73 124.58
								 L30.69 124.71 L28.55 124.71 A1.80633 1.80472 -180 0 0 28.31 123.57 A3.3321 3.32913 -180 0 0 27.73
								 122.83 L22.57 117.21 A2.12788 2.12598 -180 0 0 21.88 116.64 A2.0995 2.09764 -180 0 0 20.94 116.41
								 A2.06483 2.06299 -180 0 0 19.32 117.19 L13.77 122.92 A2.10896 2.10709 -180 0 0 13.04 124.71 L1.48
								 124.71 A1.48478 1.48346 0 0 1 -0 123.23 L0 90.71 A1.47848 1.47717 0 0 1 1.48 89.26 L42.65 89.26
								 A1.48478 1.48346 0 0 1 44.13 90.74 Z" class="st1"/>
				</g>
				<g id="shape5868-5" transform="translate(4.902,-16.822)">
					<title>Sheet.5868</title>
					<path d="M43.36 99.1 L43.36 114.18 A14.8163 14.8031 -180 0 0 23.88 124.71 L1.45 124.71 A1.45326 1.45197 0 0 1
								 0 123.26 L0 99.1 L43.36 99.1 Z" class="st2"/>
				</g>
				<g id="shape5869-9" transform="translate(4.90515,-42.4283)">
					<title>Sheet.5869</title>
					<path d="M1.45 115.48 L41.9 115.48 A1.45326 1.45197 0 0 1 43.36 116.94 L43.36 124.71 L0 124.71 L0 116.91 A1.45011
								 1.44882 0 0 1 1.45 115.48 Z" class="st3"/>
				</g>
				<g id="shape5870-11" transform="translate(12.3511,-30.1915)">
					<title>Sheet.5870</title>
					<path d="M25.1 118.97 A3.36677 3.36378 0 1 1 21.73 122.33 A3.36677 3.36378 0 0 1 25.1 118.97 ZM11.01 122.33 A3.36677
								 3.36378 -180 1 0 14.38 118.97 A3.36362 3.36063 -180 0 0 11.01 122.33 ZM0 122.33 A3.36677 3.36378
								 -180 1 0 3.36 118.97 A3.36362 3.36063 -180 0 0 0 122.33 Z" class="st4"/>
				</g>
				<g id="shape5871-13" transform="translate(14.0881,2.98428E-13)">
					<title>Sheet.5871</title>
					<path d="M36.2 117.78 L40.95 117.78 A13.3725 13.3606 -180 0 0 42.6 111.77 L37.39 111.77 A16.6037 16.589 0 0 1
								 36.2 117.78 ZM37.39 110.82 L42.6 110.82 A13.3284 13.3165 -180 0 0 40.96 104.8 L36.12 104.8 A15.5035
								 15.4898 0 0 1 37.39 110.81 L37.39 110.82 ZM30.32 124.71 A13.5081 13.4961 -180 0 0 40.38 118.72 L35.73
								 118.72 A16.112 16.0976 0 0 1 30.32 124.71 ZM35.64 103.84 L40.37 103.84 A13.4923 13.4803 -180 0 0
								 30.02 97.85 L29.81 97.85 L30.02 97.96 A16.8433 16.8283 0 0 1 35.64 103.84 L35.64 103.84 ZM29.31
								 103.84 L34.6 103.84 A15.1221 15.1087 -180 0 0 33.89 102.8 A16.2664 16.252 -180 0 0 30.02 99.09 C29.79
								 98.93 29.56 98.77 29.32 98.63 L29.31 103.84 ZM29.31 110.81 L36.44 110.81 A14.3403 14.3276 -180 0
								 0 35.07 104.79 L29.31 104.79 L29.31 110.81 ZM29.31 117.77 L35.13 117.77 A15.3901 15.3764 -180 0
								 0 36.44 111.76 L29.31 111.76 L29.31 117.77 ZM34.67 118.71 L29.31 118.71 L29.31 124.23 A15.7116 15.6976
								 -180 0 0 34.67 118.72 L34.67 118.71 ZM28.37 118.71 L23.4 118.71 A15.5193 15.5055 -180 0 0 28.37
								 123.98 L28.37 118.71 ZM28.37 98.62 A14.9802 14.9669 -180 0 0 23.55 103.44 L23.32 103.83 L28.36 103.83
								 L28.37 98.62 ZM28.37 111.74 L21.62 111.74 A15.2797 15.2661 -180 0 0 22.93 117.76 L28.37 117.76 L28.37
								 111.74 ZM28.37 104.78 L22.87 104.78 A15.6769 15.663 -180 0 0 22.04 107.3 A15.4184 15.4047 -180 0
								 0 21.62 110.81 L28.36 110.81 L28.37 104.78 ZM27.71 124.71 A16.2002 16.1858 0 0 1 22.33 118.72 L17.88
								 118.72 C17.93 118.79 17.97 118.86 18.02 118.92 A12.6727 12.6614 -180 0 0 19.14 120.35 A13.5175 13.5055
								 -180 0 0 27.71 124.71 ZM27.81 97.85 A13.527 13.515 -180 0 0 18.13 103.45 C18.03 103.58 17.95 103.71
								 17.86 103.83 L22.28 103.83 L22.49 103.45 A15.7085 15.6945 0 0 1 27.81 97.85 ZM15.62 110.8 L20.67
								 110.8 A16.1876 16.1732 0 0 1 21.06 107.29 A16.9095 16.8945 0 0 1 21.83 104.79 L17.29 104.79 A13.2748
								 13.263 -180 0 0 16.23 107.31 A13.631 13.6189 -180 0 0 15.63 110.81 L15.62 110.8 ZM17.29 117.78 L21.86
								 117.78 C21.8 117.64 21.75 117.5 21.7 117.36 A16.3137 16.2992 0 0 1 20.71 112.82 A14.5452 14.5323
								 0 0 1 20.66 111.77 L15.62 111.77 C15.62 111.99 15.64 112.21 15.66 112.43 A12.4426 12.4315 -180 0
								 0 15.87 113.87 A13.3032 13.2913 -180 0 0 17.29 117.78 ZM16.22 118.57 A13.2117 13.2 0 0 1 4.39 104.45
								 a0.630482 0.629921 -180 0 0 -0.0441337 -0.274016 a0.652549 0.651969 -180 0 0 -0.362527 -0.390551
								 a0.731359 0.730709 -180 0 0 -0.271107 -0.0566929 L1.19 103.73 C0.22 103.73 0 103.2 0.62 102.57 L6.22
								 96.81 a0.712444 0.711811 0 0 1 0.264802 -0.23622 a0.734511 0.733858 0 0 1 0.668311 -2.84217E-14
								 a0.699835 0.699213 0 0 1 0.26165 0.23622 L12.6 102.44 A2.43996 2.4378 0 0 1 12.98 102.92 C13.15
								 103.22 13.08 103.4 12.79 103.51 A2.32648 2.32441 0 0 1 12.03 103.61 L9.71 103.61 a0.721902 0.72126
								 -180 0 0 -0.725054 0.724409 A8.64706 8.63937 -180 0 0 14.45 113.34 A14.5578 14.5449 -180 0 0 16.22
								 118.56 L16.22 118.57 Z" class="st5"/>
				</g>
			</g>
		</g>
	</g>
</svg>
